X: 556
T: Farewell Blues
B: jims roots
M:4/4
L:1/8
Q: 1/4=100
K:C
V:1 
(3cAG "C"c4z2 | (3cAG c4z2 (3cAG | c2A2 c2A2 | c2G2A2c2 ||
"C"{d}egge g2fa | gege [_e2^F][d2=F] | [c2E]cG AGED | ([C4E] [C4E]) |
"C"{d}egge g2fa | gege [_e2^F][d2=F] | [c2E]cG AGED | ([C4E] [C4E]) ||
"A"^ceag agc2 | ^cega gec2 | "D"d3^f gdf2 | "Eb"_e3g _aeg2 |
"C"_e=eg2 gfag | [g2e]ge _g_efd] | [c2e]ge _edcA | ([c4E] [c4E])||
"C7"{_e}=e_b2g bgeg | geae _beae | g2_ed2ed2 | ([c4E] [c4E]) |
"C7"{_e}=e_b2g bgeg | geae _beae | g2ag2e_e2 | ([c4E] [c4E]) ||
"A"^ceag agc2 | ^cega gec2 | "D"d3^f gdf2 | "Eb"_e3g _aeg2 |
"C"_e=eg2 gfag | [g2e]ge _g_efd] | [c2e]ge _edcA | ([c4E] [c4E])|]
% abcbook-tune_id 6298c25da8b7ff8ade3e0600


% abcbook-boost 0
% abcbook-tablature 
% abcbook-transpose 
% abcbook-lastupdated 1654178397917
% abcbook-soundfonts 
% abcbook-repeats 1


